!!!OTL: Tieshou kaichuang xinshijie
!!!ARE: Asia, China,ÿHubei Jiayu
!! I, 368
!!!SCT: C2133
!!!YEM: Copyright 1995, estate of Helmut Schaffrath.
**kern
*ICvox
*Ivox
!! Mixed meters:  2/4; 3/4
*M3/4
*k[f#c#g#]
*A:
{8b
16b
16cc#
8ee
8ee
=1
8cc#
16cc#
16b
8a
8f#
=2
8a
16ee
16cc#
[2b
=3
8b]
16cc#
16ee
2a}
=4
{16cc#
16cc#
16b
16cc#
16b
16a
16a
16f#
8.e
16f#
=5
*M2/4
8a
16f#
16a
8.b
16cc#
=6
*M3/4
16b
8a
16f#
2e}
=7
*M2/4
{16e
16e
16e
16f#
8a
8a
=8
16f#
16a
16e
16f#
4a
=9
8a
4b
16ee
16cc#
=10
16b
16cc#
16b
16a
4f#}
=11
{16a
16a
16f#
16a
8b
8b
=12
8a
16f#
16a
4b
=13
16a
16a
16f#
16a
8e
8e
=14
2a}
=15
{8a
16f#
16a
8.b
16cc#
=16
16b
16a
8f#
4e}
==
!!!AGN: Haozi, Tiange, Wujuzi
!!!ONB: ESAC (Essen Associative Code) Database: SENGANSU
!!!AMT: irregular
!!!AIN: vox
!!!EED: Helmut Schaffrath
!!!EEV: 1.0
*-
!!!ONB: Tied note syntax fixed by Craig Sapp, 2004/05/03/
